packages/ui-icons/svg/Solid/reply-all-2.svg

<svg viewBox="0 0 1920 1920" version="1.1" xmlns="http://www.w3.org/2000/svg">
    <path d="M1044.768,224 L1195.59467,374.826667 L888.714667,681.706667 L988.128,681.706667 C1496.928,681.706667 1910.79467,1095.57333 1910.79467,1604.37333 L1910.79467,1604.37333 L1910.79467,1695.04 L1697.46133,1695.04 L1697.46133,1604.37333 C1697.46133,1213.22667 1379.27467,895.04 988.128,895.04 L988.128,895.04 L887.968,895.04 L1195.59467,1202.77333 L1044.768,1353.6 L479.968,788.8 L1044.768,224 Z M564.8,224 L715.626667,374.826667 L301.653333,788.8 L715.626667,1202.77333 L564.8,1353.6 L0,788.8 L564.8,224 Z" stroke="none" stroke-width="1" fill-rule="evenodd"/>
</svg>

<svg viewBox="0 0 1920 1920" xmlns="http://www.w3.org/2000/svg">
    <path d="m1044.768 224 150.827 150.827-306.88 306.88h99.413c508.8 0 922.667 413.866 922.667 922.666v90.667H1697.46v-90.667c0-391.146-318.186-709.333-709.333-709.333h-100.16l307.627 307.733-150.827 150.827-564.8-564.8 564.8-564.8ZM564.8 224l150.827 150.827L301.653 788.8l413.974 413.973L564.8 1353.6 0 788.8 564.8 224Z" fill-rule="evenodd"/>
</svg>
